automatic/svg/Bandai - Super Vision 8000-content.svg

<?xml version="1.0" encoding="UTF-8" standalone="no"?>
<svg
   xmlns:dc="http://purl.org/dc/elements/1.1/"
   xmlns:cc="http://creativecommons.org/ns#"
   xmlns:rdf="http://www.w3.org/1999/02/22-rdf-syntax-ns#"
   xmlns:svg="http://www.w3.org/2000/svg"
   xmlns="http://www.w3.org/2000/svg"
   viewBox="0 0 320 320"
   height="320"
   width="320"
   xml:space="preserve"
   version="1.1"
   id="svg2"><metadata
     id="metadata8"><rdf:RDF><cc:Work
         rdf:about=""><dc:format>image/svg+xml</dc:format><dc:type
           rdf:resource="http://purl.org/dc/dcmitype/StillImage" /></cc:Work></rdf:RDF></metadata><defs
     id="defs6" /><g
     transform="matrix(1.25,0,0,-1.25,0,320)"
     id="g10"><g
       transform="translate(12,72)"
       id="g12"><path
         id="path14"
         style="fill:#f2f2f2;fill-opacity:1;fill-rule:nonzero;stroke:none"
         d="m 0,0 0,148 48,0 0,-104 0,-4 4,0 128,0 4,0 0,4 0,104 48,0 L 232,0 0,0 Z m 232,-36 -232,0 0,32 232,0 0,-32 z m -52,80 -128,0 0,104 128,0 0,-104 z m 52,108 -48,0 -4,0 -128,0 -4,0 -48,0 -4,0 0,-4 0,-148 0,-4 0,-32 0,-4 4,0 232,0 4,0 0,4 0,32 0,4 0,148 0,4 -4,0 z" /></g><path
       id="path16"
       style="fill:#f2f2f2;fill-opacity:1;fill-rule:nonzero;stroke:none"
       d="m 188,216 -120,0 0,-4 120,0 0,4 z" /><path
       id="path18"
       style="fill:#f2f2f2;fill-opacity:1;fill-rule:nonzero;stroke:none"
       d="m 188,208 -120,0 0,-4 120,0 0,4 z" /><path
       id="path20"
       style="fill:#f2f2f2;fill-opacity:1;fill-rule:nonzero;stroke:none"
       d="m 188,200 -120,0 0,-4 120,0 0,4 z" /><path
       id="path22"
       style="fill:#f2f2f2;fill-opacity:1;fill-rule:nonzero;stroke:none"
       d="m 188,192 -120,0 0,-4 120,0 0,4 z" /><path
       id="path24"
       style="fill:#f2f2f2;fill-opacity:1;fill-rule:nonzero;stroke:none"
       d="m 188,184 -120,0 0,-4 120,0 0,4 z" /><path
       id="path26"
       style="fill:#f2f2f2;fill-opacity:1;fill-rule:nonzero;stroke:none"
       d="m 188,176 -120,0 0,-4 120,0 0,4 z" /><path
       id="path28"
       style="fill:#f2f2f2;fill-opacity:1;fill-rule:nonzero;stroke:none"
       d="m 96,124 -24,0 0,24 24,0 0,-24 z m -24,40 112,0 0,-12 -84,0 -4,0 -24,0 0,12 z m 112,-40 -84,0 0,24 84,0 0,-24 z m -88,-4 4,0 88,0 0,28 0,4 0,12 0,4 -4,0 -112,0 -4,0 0,-4 0,-12 0,-4 0,-24 0,-4 4,0 24,0 z" /></g></svg>

<?xml version="1.0" encoding="UTF-8" standalone="no"?>
<svg
   xmlns:dc="http://purl.org/dc/elements/1.1/"
   xmlns:cc="http://creativecommons.org/ns#"
   xmlns:rdf="http://www.w3.org/1999/02/22-rdf-syntax-ns#"
   xmlns:svg="http://www.w3.org/2000/svg"
   xmlns="http://www.w3.org/2000/svg"
   viewBox="0 0 320 256"
   height="256"
   width="320"
   xml:space="preserve"
   id="svg2"
   version="1.1"><metadata
     id="metadata8"><rdf:RDF><cc:Work
         rdf:about=""><dc:format>image/svg+xml</dc:format><dc:type
           rdf:resource="http://purl.org/dc/dcmitype/StillImage" /></cc:Work></rdf:RDF></metadata><defs
     id="defs6" /><g
     transform="matrix(1.3333333,0,0,-1.3333333,-10.666666,298.66666)"
     id="g10"><g
       transform="translate(12,72)"
       id="g12"><path
         id="path14"
         style="fill:#f2f2f2;fill-opacity:1;fill-rule:nonzero;stroke:none"
         d="M 0,0 V 148 H 48 V 44 40 h 4 128 4 v 4 104 h 48 V 0 Z M 232,-36 H 0 V -4 H 232 Z M 180,44 H 52 v 104 h 128 z m 52,108 H 184 180 52 48 0 -4 V 148 0 -4 -36 -40 h 4 232 4 v 4 32 4 148 4 z" /></g><path
       id="path16"
       style="fill:#f2f2f2;fill-opacity:1;fill-rule:nonzero;stroke:none"
       d="M 188,216 H 68 v -4 h 120 z" /><path
       id="path18"
       style="fill:#f2f2f2;fill-opacity:1;fill-rule:nonzero;stroke:none"
       d="M 188,208 H 68 v -4 h 120 z" /><path
       id="path20"
       style="fill:#f2f2f2;fill-opacity:1;fill-rule:nonzero;stroke:none"
       d="M 188,200 H 68 v -4 h 120 z" /><path
       id="path22"
       style="fill:#f2f2f2;fill-opacity:1;fill-rule:nonzero;stroke:none"
       d="M 188,192 H 68 v -4 h 120 z" /><path
       id="path24"
       style="fill:#f2f2f2;fill-opacity:1;fill-rule:nonzero;stroke:none"
       d="M 188,184 H 68 v -4 h 120 z" /><path
       id="path26"
       style="fill:#f2f2f2;fill-opacity:1;fill-rule:nonzero;stroke:none"
       d="M 188,176 H 68 v -4 h 120 z" /><path
       id="path28"
       style="fill:#f2f2f2;fill-opacity:1;fill-rule:nonzero;stroke:none"
       d="M 96,124 H 72 v 24 H 96 Z M 72,164 H 184 V 152 H 100 96 72 Z m 112,-40 h -84 v 24 h 84 z m -88,-4 h 4 88 v 28 4 12 4 H 184 72 68 v -4 -12 -4 -24 -4 h 4 z" /></g></svg>
